img/icon-logout.svg

<svg width="20" height="17" viewBox="0 0 20 17" fill="none" xmlns="http://www.w3.org/2000/svg">
<path d="M20 8.5L11.125 0V6H5.125V11H11.125V17L20 8.5Z" fill="#C5C5C5"/>
<path d="M2.10591 13.952V3.048C2.12391 2.672 2.27691 1.991 3.11591 1.991H8.14291V0H3.11591C0.937914 0 0.111914 1.81 0.0869141 3.027V13.973C0.111914 15.189 0.937914 17 3.11591 17H8.14291V15.01H3.11591C2.27691 15.01 2.12391 14.327 2.10591 13.952Z" fill="#C5C5C5"/>
</svg>

<svg width="20" height="17" fill="none" xmlns="http://www.w3.org/2000/svg"><path d="M20 9l-9-9v6H5v5h6v6l9-8z" fill="#C5C5C5"/><path d="M2 14V3l1-1h5V0H3C1 0 0 2 0 3v11c0 1 1 3 3 3h5v-2H3l-1-1z" fill="#C5C5C5"/></svg>
